berloni/img/features/feature-0.svg

<svg width="80" height="78" viewBox="0 0 80 78" fill="none" xmlns="http://www.w3.org/2000/svg">
<path d="M78.9581 14.7074L40.5517 0.536182C40.1956 0.404932 39.8044 0.404932 39.4484 0.536182L1.04203 14.7074L1.04172 14.7087C0.915937 14.7552 0.795 14.8168 0.6825 14.8951C0.254844 15.1932 0 15.6815 0 16.2026V61.7973C0 62.4646 0.415781 63.0613 1.04188 63.2924L39.4483 77.4637C39.6273 77.5298 39.8141 77.5621 39.9998 77.5621C40.1875 77.5621 40.3742 77.5281 40.5511 77.4628L40.5517 77.4637L78.9581 63.2924C79.5842 63.0613 80 62.4648 80 61.7973V16.2026C80 15.5351 79.5842 14.9385 78.9581 14.7074ZM27.5697 27.486V44.5084L14.8534 39.8162C14.0677 39.5263 13.5458 38.7774 13.5458 37.9399V22.3113L27.5697 27.486Z" fill="#EE3425"/>
<path d="M40 3.5L6 16.5L40 29L74.5 16L40 3.5Z" fill="white"/>
</svg>

<svg width="80" height="78" fill="none" xmlns="http://www.w3.org/2000/svg"><path d="M78.958 14.707L40.552.537a1.595 1.595 0 0 0-1.104 0L1.042 14.706v.002A1.594 1.594 0 0 0 0 16.203v45.594c0 .668.416 1.264 1.042 1.495l38.406 14.172a1.591 1.591 0 0 0 1.103-.001l38.407-14.17A1.594 1.594 0 0 0 80 61.796V16.203c0-.668-.416-1.264-1.042-1.496zM27.57 27.486v17.022l-12.717-4.692a2 2 0 0 1-1.307-1.876V22.31l14.024 5.175z" fill="#EE3425"/><path d="M40 3.5l-34 13L40 29l34.5-13L40 3.5z" fill="#fff"/></svg>
